X:18552
T:Wearmouth Lasses. JMT.047
T:Yarmouth Lasses.JMT.047
M:6/8
L:1/8
S:J.Moore,Tyneside,1841.(34b)
R:Jig
O:England
A:Northumbria
H:184
Z:vmp.Chris Partington
K:G
d|gfg d^cd|=cBc dBG|DGBB2A|Acee2d|gfg d^cd|!=cBc dBG|DGBB2d|dcAG2:|
|:D DGBB2A|Acee2d|!DGBB2A|Acee2d|gfg d^cd|=cBc dBG|DGB ced|cBAG2:|]


